dist/svg/game-line.svg

<svg xmlns="http://www.w3.org/2000/svg" viewBox="0 0 24 24"><path d="M6.31 5.285C4.941 5.417 3.637 6.474 3.207 7.8a5 5 0 0 0-.125.447c-.044.199-.642 7.258-.642 7.571 0 .274.11.763.246 1.089.355.856 1.103 1.502 2.036 1.757.35.096 1.083.097 1.438.001.143-.038.427-.15.63-.248.467-.225.745-.482 1.495-1.382.306-.369.645-.734.751-.812.259-.19.655-.372.92-.422.286-.054 3.802-.054 4.088 0 .265.05.661.232.92.422.106.078.445.443.751.812.75.9 1.028 1.157 1.495 1.382.526.253.8.318 1.35.318 1.02 0 1.884-.457 2.474-1.308.294-.425.526-1.134.526-1.609 0-.4-.604-7.389-.659-7.626-.134-.58-.317-.979-.652-1.424a3.73 3.73 0 0 0-2.632-1.486c-.53-.051-10.783-.048-11.307.003m11.418 1.519c.308.063.747.29 1.003.518.387.345.655.838.727 1.338.08.556.585 6.966.569 7.223a1.43 1.43 0 0 1-.818 1.206c-.249.122-.296.131-.668.131-.661-.001-.764-.072-1.663-1.141-.766-.912-1.076-1.176-1.731-1.477-.697-.321-1.043-.361-3.147-.361s-2.45.04-3.147.361c-.655.301-.965.565-1.731 1.477-.899 1.069-1.002 1.14-1.662 1.141-.358 0-.427-.012-.652-.116a1.46 1.46 0 0 1-.835-1.221c-.016-.257.489-6.667.569-7.223.125-.868.822-1.637 1.667-1.842.282-.068 11.191-.082 11.519-.014M7.82 8.276a.67.67 0 0 0-.394.244c-.144.171-.186.357-.186.83v.41h-.462c-.531 0-.695.057-.886.307-.099.13-.112.181-.112.436 0 .263.011.303.121.439.206.255.332.298.868.298h.471v.41c.001.509.049.688.236.875a.74.74 0 0 0 1.098-.045c.144-.171.186-.357.186-.83v-.41h.462c.472 0 .609-.034.792-.195.21-.184.289-.604.161-.857-.176-.348-.354-.428-.953-.428H8.76v-.41c0-.473-.042-.659-.186-.83a.78.78 0 0 0-.754-.244m8.88.541c-.248.111-.457.423-.459.685-.001.185.177.504.345.618.121.082.196.1.414.1s.293-.018.414-.1c.168-.114.346-.433.345-.618-.002-.263-.243-.605-.492-.699a.9.9 0 0 0-.567.014m-2 2c-.248.111-.457.423-.459.685-.001.185.177.504.345.618.121.082.196.1.414.1s.293-.018.414-.1c.168-.114.346-.433.345-.618-.002-.263-.243-.605-.492-.699a.9.9 0 0 0-.567.014" fill-rule="evenodd"/></svg>

<svg fill="none" xmlns="http://www.w3.org/2000/svg" viewBox="0 0 24 24"><path d="M6.310 5.285 C 4.941 5.417,3.637 6.474,3.207 7.800 C 3.160 7.943,3.104 8.144,3.082 8.247 C 3.038 8.446,2.440 15.505,2.440 15.818 C 2.440 16.092,2.550 16.581,2.686 16.907 C 3.041 17.763,3.789 18.409,4.722 18.664 C 5.072 18.760,5.805 18.761,6.160 18.665 C 6.303 18.627,6.587 18.515,6.790 18.417 C 7.257 18.192,7.535 17.935,8.285 17.035 C 8.591 16.666,8.930 16.301,9.036 16.223 C 9.295 16.033,9.691 15.851,9.956 15.801 C 10.242 15.747,13.758 15.747,14.044 15.801 C 14.309 15.851,14.705 16.033,14.964 16.223 C 15.070 16.301,15.409 16.666,15.715 17.035 C 16.465 17.935,16.743 18.192,17.210 18.417 C 17.736 18.670,18.010 18.735,18.560 18.735 C 19.580 18.735,20.444 18.278,21.034 17.427 C 21.328 17.002,21.560 16.293,21.560 15.818 C 21.560 15.418,20.956 8.429,20.901 8.192 C 20.767 7.612,20.584 7.213,20.249 6.768 C 19.611 5.918,18.658 5.380,17.617 5.282 C 17.087 5.231,6.834 5.234,6.310 5.285 M17.728 6.804 C 18.036 6.867,18.475 7.094,18.731 7.322 C 19.118 7.667,19.386 8.160,19.458 8.660 C 19.538 9.216,20.043 15.626,20.027 15.883 C 19.995 16.405,19.693 16.850,19.209 17.089 C 18.960 17.211,18.913 17.220,18.541 17.220 C 17.880 17.219,17.777 17.148,16.878 16.079 C 16.112 15.167,15.802 14.903,15.147 14.602 C 14.450 14.281,14.104 14.241,12.000 14.241 C 9.896 14.241,9.550 14.281,8.853 14.602 C 8.198 14.903,7.888 15.167,7.122 16.079 C 6.223 17.148,6.120 17.219,5.460 17.220 C 5.102 17.220,5.033 17.208,4.808 17.104 C 4.332 16.884,4.005 16.407,3.973 15.883 C 3.957 15.626,4.462 9.216,4.542 8.660 C 4.667 7.792,5.364 7.023,6.209 6.818 C 6.491 6.750,17.400 6.736,17.728 6.804 M7.820 8.276 C 7.643 8.320,7.541 8.384,7.426 8.520 C 7.282 8.691,7.240 8.877,7.240 9.350 L 7.240 9.760 6.778 9.760 C 6.247 9.760,6.083 9.817,5.892 10.067 C 5.793 10.197,5.780 10.248,5.780 10.503 C 5.780 10.766,5.791 10.806,5.901 10.942 C 6.107 11.197,6.233 11.240,6.769 11.240 L 7.240 11.240 7.240 11.650 C 7.241 12.159,7.289 12.338,7.476 12.525 C 7.789 12.839,8.289 12.818,8.574 12.480 C 8.718 12.309,8.760 12.123,8.760 11.650 L 8.760 11.240 9.222 11.240 C 9.694 11.240,9.831 11.206,10.014 11.045 C 10.224 10.861,10.303 10.441,10.175 10.188 C 9.999 9.840,9.821 9.760,9.222 9.760 L 8.760 9.760 8.760 9.350 C 8.760 8.877,8.718 8.691,8.574 8.520 C 8.398 8.311,8.087 8.210,7.820 8.276 M16.700 8.817 C 16.452 8.928,16.243 9.240,16.241 9.502 C 16.240 9.687,16.418 10.006,16.586 10.120 C 16.707 10.202,16.782 10.220,17.000 10.220 C 17.218 10.220,17.293 10.202,17.414 10.120 C 17.582 10.006,17.760 9.687,17.759 9.502 C 17.757 9.239,17.516 8.897,17.267 8.803 C 17.114 8.745,16.846 8.752,16.700 8.817 M14.700 10.817 C 14.452 10.928,14.243 11.240,14.241 11.502 C 14.240 11.687,14.418 12.006,14.586 12.120 C 14.707 12.202,14.782 12.220,15.000 12.220 C 15.218 12.220,15.293 12.202,15.414 12.120 C 15.582 12.006,15.760 11.687,15.759 11.502 C 15.757 11.239,15.516 10.897,15.267 10.803 C 15.114 10.745,14.846 10.752,14.700 10.817 " stroke="none" fill-rule="evenodd" fill="currentColor"/></svg>
